img/icons/document/properties.svg

<svg viewBox="0 0 17 17" xmlns="http://www.w3.org/2000/svg"><path d="m4.8 3.05e-4c-1.68 0-2.52 0-3.16 0.327-0.564 0.288-1.02 0.747-1.31 1.31-0.327 0.642-0.327 1.48-0.327 3.16v6.4c0 1.68 0 2.52 0.327 3.16 0.288 0.564 0.747 1.02 1.31 1.31 0.642 0.327 1.48 0.327 3.16 0.327h4.4c0.758 0 1.35 0 1.82-0.03l-0.972-0.972c-0.25 2e-3 -0.53 0.0021-0.848 0.0021h-4.4c-0.857 0-1.44-8e-4 -1.89-0.0375-0.438-0.0359-0.663-0.101-0.819-0.18-0.376-0.192-0.682-0.498-0.874-0.874-0.0797-0.156-0.145-0.381-0.18-0.819-0.0368-0.45-0.0376-1.03-0.0376-1.89v-6.4c0-0.857 7.8e-4 -1.44 0.0376-1.89 0.0358-0.438 0.101-0.663 0.18-0.819 0.192-0.376 0.498-0.682 0.874-0.874 0.156-0.0797 0.381-0.145 0.819-0.18 0.45-0.0368 1.03-0.0376 1.89-0.0376h4.2v1.59c0.346 0.0635 0.68 0.159 1 0.284v-1.53c0-0.16 0.15-0.279 0.296-0.213 0.161 0.0736 0.309 0.176 0.437 0.303l1.83 1.83c0.128 0.128 0.23 0.276 0.303 0.437 0.0666 0.146-0.0527 0.295-0.213 0.295h-0.876c0.316 0.299 0.597 0.634 0.836 1h0.39v0.706c0.321 0.698 0.5 1.48 0.5 2.29 0 0.177-0.0084 0.352-0.0249 0.525l0.525 0.525v-4.72c0-0.663-0.263-1.3-0.732-1.77l-1.83-1.83c-0.469-0.469-1.1-0.732-1.77-0.732h-4.87z" fill="#000"/><path d="m12 8c0 0.358-0.0471 0.706-0.136 1.04l3.62 3.62c0.781 0.781 0.781 2.05 0 2.83-0.781 0.781-2.05 0.781-2.83 0l-3.62-3.62c-0.33 0.0884-0.678 0.136-1.04 0.136-2.21 0-4-1.79-4-4 0-0.288 0.0304-0.569 0.0883-0.84 0.136-0.639 0.917-0.746 1.38-0.284l1.42 1.42c0.118 0.118 0.286 0.169 0.45 0.137l0.589-0.115c0.199-0.039 0.355-0.194 0.394-0.393l0.118-0.592c0.0326-0.164-0.0188-0.333-0.137-0.451l-1.41-1.41c-0.462-0.462-0.354-1.24 0.285-1.38 0.268-0.0567 0.546-0.0866 0.832-0.0866 2.21 0 4 1.79 4 4zm-1.1 0.778-0.149 0.557 4.03 4.03c0.39 0.39 0.39 1.02 0 1.41s-1.02 0.39-1.41 0l-4.03-4.03-0.557 0.149c-0.247 0.066-0.507 0.102-0.778 0.102-1.66 0-3-1.34-3-3 0-0.0575 0.0016-0.114 0.00477-0.171l1.17 1.17c0.353 0.353 0.859 0.507 1.35 0.411l0.589-0.115c0.597-0.117 1.06-0.583 1.18-1.18l0.118-0.592c0.0977-0.491-0.0563-0.999-0.411-1.35l-1.17-1.17c0.0539-0.00287 0.108-0.00432 0.163-0.00432 1.66 0 3 1.34 3 3 0 0.27-0.0355 0.531-0.102 0.778z" clip-rule="evenodd" fill="#000" fill-rule="evenodd"/></svg>

<svg xmlns="http://www.w3.org/2000/svg" width="17" height="17" fill="none"><path fill="#000" d="M4.8 0C3.12 0 2.28 0 1.638.327A3 3 0 0 0 .327 1.638C0 2.28 0 3.12 0 4.8v6.4c0 1.68 0 2.52.327 3.162a3 3 0 0 0 1.311 1.311C2.28 16 3.12 16 4.8 16h4.4c.758 0 1.345 0 1.82-.03l-.972-.972C9.798 15 9.518 15 9.2 15H4.8c-.857 0-1.439 0-1.889-.037-.438-.036-.663-.101-.819-.18a2 2 0 0 1-.874-.875c-.08-.156-.145-.38-.18-.819C1 12.64 1 12.057 1 11.2V4.8c0-.856 0-1.439.038-1.889.035-.438.1-.662.18-.819a2 2 0 0 1 .874-.874c.156-.08.38-.144.819-.18C3.361 1 3.943 1 4.8 1H9v1.591c.346.063.68.16 1 .284V1.35c0-.16.15-.28.296-.213.16.074.309.176.436.304l1.829 1.828a1.5 1.5 0 0 1 .303.437c.067.145-.053.295-.213.295h-.876c.316.299.597.635.835 1H13v.706a5.48 5.48 0 0 1 .475 2.82L14 9.05V4.329a2.5 2.5 0 0 0-.732-1.768L11.439.733A2.5 2.5 0 0 0 9.672 0H4.8Z"/><path fill="#000" fill-rule="evenodd" d="M12 8c0 .359-.047.706-.136 1.036l3.621 3.621a2 2 0 0 1-2.828 2.829l-3.62-3.621a4.004 4.004 0 0 1-4.95-4.705c.137-.639.917-.746 1.379-.284l1.416 1.416a.5.5 0 0 0 .45.137l.588-.115a.5.5 0 0 0 .394-.393l.118-.593a.5.5 0 0 0-.137-.45L6.883 5.464c-.462-.462-.354-1.243.285-1.378A4 4 0 0 1 12 8Zm-1.101.778-.15.557 4.03 4.03a1 1 0 0 1-1.415 1.413L9.335 10.75l-.557.149a3 3 0 0 1-3.773-3.07L6.175 9a1.5 1.5 0 0 0 1.35.411l.588-.115a1.5 1.5 0 0 0 1.183-1.18l.118-.592a1.5 1.5 0 0 0-.41-1.353L7.836 5.005a3 3 0 0 1 3.062 3.773Z" clip-rule="evenodd"/></svg>
